other/geologicaltimescale.svg

<svg width="48" height="48" version="1.1" viewBox="0 0 48 48" xmlns="http://www.w3.org/2000/svg">
 <defs>
  <style>.a{fill:none;stroke:#fff;stroke-linecap:round;stroke-linejoin:round;}</style>
 </defs>
 <g stroke="#fff">
  <path class="a" d="m40.5 5.5h-33a2 2 0 0 0-2 2v33a2 2 0 0 0 2 2h33a2 2 0 0 0 2-2v-33a2 2 0 0 0-2-2z"/>
  <g fill="none" stroke-width="1px">
   <path d="m5.5 15.809h18.547v-10.309"/>
   <path d="m5.5 38.85h18.547v-23.041h18.453"/>
   <path d="m24.047 22.442h18.453"/>
   <path d="m24.047 8.8898h18.453"/>
   <path d="m5.5 25.732h37"/>
   <path d="m24.047 38.85h18.453"/>
   <path d="m24.047 35.398h18.453"/>
  </g>
 </g>
</svg>

<svg xmlns="http://www.w3.org/2000/svg" viewBox="0 0 48 48"><defs><style>.a,.b{fill:none;stroke:#fff;}.a{stroke-linecap:round;stroke-linejoin:round;}</style></defs><path class="a" d="M40.5,5.5H7.5a2,2,0,0,0-2,2v33a2,2,0,0,0,2,2h33a2,2,0,0,0,2-2V7.5A2,2,0,0,0,40.5,5.5Z"/><path class="b" d="M5.5,15.809H24.047V5.5"/><path class="b" d="M5.5,38.85H24.047V15.809H42.5"/><path class="b" d="M24.047,22.442H42.5"/><path class="b" d="M24.047,8.89H42.5"/><path class="b" d="M5.5,25.732h37"/><path class="b" d="M24.047,38.85H42.5"/><path class="b" d="M24.047,35.398H42.5"/></svg>
